<?xml version="1.0" encoding="UTF-8"?>
<map version="1.10" tiledversion="1.12.2" orientation="orthogonal" renderorder="right-down" width="100" height="100" tilewidth="32" tileheight="32" infinite="0" nextlayerid="3" nextobjectid="53">
 <editorsettings>
  <export target="spelmap.json" format="json"/>
 </editorsettings>
 <tileset firstgid="1" source="grass.tsx"/>
 <tileset firstgid="50" source="water.tsx"/>
 <tileset firstgid="176" source="sand.tsx"/>
 <tileset firstgid="267" source="gravel.tsx"/>
 <tileset firstgid="316" source="mountain.tsx"/>
 <tileset firstgid="766" source="rock.tsx"/>
 <tileset firstgid="836" source="ice.tsx"/>
 <tileset firstgid="892" source="snow.tsx"/>
 <tileset firstgid="962" source="lava.tsx"/>
 <tileset firstgid="1046" source="lavapath.tsx"/>
 <tileset firstgid="1130" source="nature.tsx"/>
 <layer id="1" name="Tile Layer 1" width="100" height="100">
  <data encoding="csv">
73,148,51,56,93,86,117,164,156,150,75,119,156,50,169,128,162,167,51,87,145,135,146,128,77,134,76,134,155,150,144,144,66,115,156,76,70,85,64,121,109,138,116,169,77,73,155,153,115,75,75,69,171,56,116,95,124,167,84,92,145,69,146,66,133,87,141,68,65,169,98,150,161,99,165,115,173,81,165,171,109,132,113,110,151,138,62,104,141,54,169,118,84,95,172,90,58,123,98,109,
59,55,136,118,96,52,137,97,64,160,83,101,147,56,110,156,103,142,86,71,76,93,62,58,129,175,99,128,156,93,160,164,107,124,126,126,65,90,58,123,78,141,122,51,122,130,142,112,132,112,68,94,53,63,134,71,59,78,79,116,137,172,124,149,76,58,112,150,158,112,58,156,71,50,116,96,167,126,118,158,170,145,52,153,113,151,160,94,162,144,97,135,55,78,123,138,156,151,101,133,
91,69,105,142,125,104,53,146,92,161,139,141,65,62,117,89,163,98,65,92,72,131,55,146,108,117,161,58,144,170,108,51,84,149,67,104,142,154,52,140,116,134,65,119,106,141,148,128,106,92,54,146,154,64,166,90,147,86,139,63,59,169,123,172,173,75,56,71,153,130,143,99,139,100,72,88,64,104,162,120,124,97,60,88,163,166,139,85,169,101,103,58,54,63,104,140,112,105,167,51,
77,158,57,116,126,148,104,139,63,116,86,113,155,122,79,106,82,127,76,97,50,67,85,116,124,150,75,171,53,75,136,99,132,73,156,71,113,146,116,58,130,146,90,159,85,107,62,80,76,95,71,105,172,119,172,154,164,88,124,118,150,96,114,60,120,80,172,107,127,124,95,151,104,145,99,139,101,102,137,142,107,133,72,103,70,108,174,151,67,88,151,53,109,61,95,148,78,60,51,120,
166,139,94,165,170,55,88,97,128,120,83,165,119,67,79,127,58,110,142,119,151,56,137,172,143,72,54,154,86,68,129,59,171,171,92,140,91,132,156,67,84,78,161,104,96,70,173,99,143,63,141,166,81,57,127,117,57,152,88,57,57,57,81,71,154,62,168,106,113,83,131,64,116,166,52,59,63,163,115,106,115,153,107,65,139,108,99,161,60,76,165,99,57,121,52,101,66,165,80,175,
127,157,113,150,132,173,99,58,109,147,109,79,107,111,77,73,99,97,130,122,173,109,54,106,95,52,172,70,57,157,120,64,58,110,132,93,84,74,75,108,114,148,142,109,128,70,83,105,166,98,120,102,132,76,172,164,94,55,162,71,155,160,134,98,152,74,77,134,140,131,151,93,92,99,60,117,81,56,103,107,143,84,72,132,70,109,173,162,104,102,66,149,70,164,75,110,151,107,151,112,
61,56,139,171,138,96,147,55,122,126,152,153,86,168,111,80,101,50,141,156,108,75,80,124,164,72,99,64,77,149,153,87,93,51,96,115,98,87,108,126,76,93,127,86,160,151,171,90,56,139,96,105,113,89,150,87,62,173,145,140,150,126,168,167,137,84,69,136,93,138,59,108,132,134,172,61,89,97,146,149,105,139,59,91,55,164,68,64,134,76,134,68,56,95,74,91,119,112,103,109,
132,96,138,141,140,76,130,170,146,168,109,125,167,67,76,83,82,108,58,118,77,56,122,92,154,58,145,175,105,69,87,156,93,115,89,154,170,175,65,58,156,170,97,73,172,143,81,136,69,113,110,98,172,149,99,145,97,114,66,147,120,123,164,135,116,108,77,141,61,67,94,93,107,127,81,64,69,51,169,78,167,85,144,69,154,140,68,98,72,155,71,81,154,108,59,92,110,114,120,79,
163,138,63,96,141,157,89,93,165,64,64,138,141,159,166,129,99,118,51,82,106,145,119,148,142,136,69,94,158,159,138,106,52,166,58,64,114,114,127,85,140,126,171,60,81,58,149,105,140,174,116,120,98,168,97,66,133,60,111,193,212,201,218,236,253,211,226,194,246,250,253,93,153,129,160,98,99,78,171,162,89,150,77,155,87,171,89,61,117,90,163,113,124,126,115,63,139,59,150,82,
136,157,150,50,102,164,131,173,73,104,97,155,112,54,138,74,118,126,91,68,53,87,94,55,165,128,115,63,160,106,131,64,72,60,114,173,52,94,122,92,79,101,108,53,134,64,128,168,130,62,175,126,70,146,110,150,81,257,244,248,226,222,261,245,244,227,200,805,809,245,258,211,184,194,133,126,164,172,80,91,98,103,73,132,65,54,148,134,63,69,67,132,169,146,116,86,67,111,100,151,
175,160,172,114,171,95,139,129,155,91,106,172,117,148,68,116,130,73,92,63,122,122,117,101,79,100,70,162,159,122,154,98,107,81,102,94,50,154,75,164,164,56,92,116,113,143,96,132,89,165,76,92,127,113,210,198,186,249,237,265,262,194,253,253,199,246,780,834,822,800,252,259,232,208,257,173,154,136,120,77,160,169,81,71,161,122,96,127,100,123,171,71,60,116,126,109,62,121,51,125,
168,123,61,89,158,63,175,107,160,116,87,64,152,170,104,151,57,223,187,184,245,244,245,828,257,222,211,234,212,200,250,187,266,260,258,220,263,263,226,167,51,87,146,130,151,98,174,70,115,116,91,153,205,266,237,261,247,205,196,192,180,193,223,188,187,199,771,766,826,806,251,214,233,187,198,252,222,50,111,138,137,162,154,104,109,59,64,82,84,116,117,166,70,140,69,59,69,96,157,115,
130,122,149,51,112,131,56,116,78,72,63,104,86,86,83,221,181,236,193,266,225,263,218,805,811,247,252,208,192,224,233,219,184,197,187,183,262,247,240,206,237,214,115,74,137,78,107,151,53,249,211,257,187,213,200,185,213,223,250,265,179,220,194,237,198,211,235,835,832,790,249,235,251,224,235,264,185,57,64,157,85,90,77,69,90,121,97,135,79,88,55,62,155,85,65,115,141,131,122,73,
142,82,76,137,80,100,161,85,63,76,109,66,92,106,250,207,220,196,194,218,201,265,797,825,816,822,264,251,185,249,259,226,181,208,227,206,210,207,240,264,185,258,262,195,179,260,249,245,226,222,246,237,211,245,193,209,234,218,181,245,199,262,227,233,239,198,182,222,188,237,227,197,240,200,252,261,224,235,72,134,166,96,136,66,124,106,90,113,124,143,127,135,168,133,58,63,85,122,106,139,
105,65,110,157,147,137,80,90,62,143,86,266,227,196,257,210,200,233,259,222,237,225,832,790,804,808,249,239,233,179,250,179,234,209,260,233,251,237,199,185,192,224,197,197,251,199,183,252,219,253,257,250,226,183,199,198,264,213,212,233,207,184,187,259,208,185,213,240,249,253,252,208,245,207,238,265,261,233,68,68,154,84,85,119,171,96,72,62,87,167,152,169,71,158,59,115,121,126,145,98,
53,125,125,96,77,100,50,69,101,62,181,258,266,220,183,218,252,252,188,179,260,198,185,821,780,208,225,252,250,222,222,222,199,246,264,224,211,250,259,223,183,199,232,220,221,244,232,258,234,207,293,292,276,277,312,269,303,269,300,280,304,295,248,239,244,181,198,213,214,238,245,252,183,209,259,263,187,236,184,66,173,128,87,144,165,57,132,156,60,87,98,122,108,99,172,154,70,135,107,158,
132,70,175,166,60,105,106,169,233,252,234,233,232,211,205,261,265,232,207,182,182,265,245,248,253,201,232,183,212,211,221,221,213,266,185,186,259,231,192,223,205,195,206,250,248,302,310,276,277,284,277,209,208,199,179,219,182,201,182,239,239,280,298,292,288,182,249,225,208,220,214,218,258,231,266,194,213,251,238,263,74,65,53,167,82,53,54,108,81,139,63,136,169,71,171,123,136,50,66,139,
152,144,170,138,84,122,155,259,182,209,224,210,201,210,265,199,235,262,265,257,252,210,250,246,218,220,201,193,196,183,264,220,179,247,260,266,226,297,278,282,280,300,281,310,296,277,262,223,260,182,223,220,209,201,231,239,195,207,195,222,183,206,252,182,294,303,290,227,196,212,186,214,227,235,226,188,232,264,223,196,207,156,53,151,173,90,60,122,88,173,102,154,94,149,103,157,128,72,123,125,
147,62,103,156,70,152,252,247,194,264,210,240,211,196,187,236,181,201,247,244,198,212,185,187,225,224,213,187,214,182,253,179,226,205,226,282,307,292,250,222,197,227,182,232,218,195,259,184,225,234,231,252,186,214,236,265,222,222,234,244,218,238,246,236,180,249,268,298,284,181,232,223,199,237,240,181,246,222,185,251,196,122,153,162,124,64,60,114,107,125,110,51,77,174,147,159,80,73,96,156,
82,165,134,130,125,210,184,207,223,224,220,266,214,219,210,250,263,267,300,292,292,314,313,297,268,267,314,296,298,269,315,194,245,179,314,274,183,211,205,247,232,249,206,259,226,265,263,200,206,262,232,206,239,222,250,219,249,220,226,199,827,225,214,209,219,201,200,208,272,269,198,246,221,221,192,218,244,258,239,225,207,248,103,140,128,84,55,100,96,53,125,160,130,116,164,90,116,53,137,166,
147,159,94,65,130,196,232,181,222,211,185,213,262,249,221,225,301,277,187,231,232,182,232,211,222,226,233,248,245,209,274,311,279,277,267,263,209,231,250,231,238,219,260,223,239,265,244,237,187,245,835,824,249,236,244,211,194,200,779,770,805,814,232,233,266,188,234,250,213,210,270,287,213,188,232,266,224,224,233,237,236,262,212,142,60,53,119,91,142,60,123,95,105,149,171,57,111,63,105,131,
118,155,68,75,88,212,225,193,260,249,233,249,258,245,297,270,304,184,199,237,233,249,221,192,208,261,226,246,259,247,194,247,239,201,225,237,245,182,236,261,214,235,200,207,195,231,238,199,233,834,782,784,785,231,221,2,6,7,774,802,781,817,30,34,7,29,244,262,180,214,187,314,269,223,263,261,185,264,187,227,219,196,265,156,75,118,93,166,69,54,138,109,162,120,67,113,71,123,99,152,
128,147,82,90,220,197,263,221,214,192,219,201,285,285,291,253,226,198,182,236,219,210,239,219,221,219,187,258,251,260,248,233,185,199,226,197,181,237,257,220,214,194,236,246,258,235,199,234,214,822,784,782,820,22,28,45,20,42,25,792,796,40,7,44,6,1,1203,9,48,42,4,240,308,279,277,309,262,194,264,239,258,780,778,829,111,97,161,106,121,88,102,139,113,94,50,149,98,61,170,86,
86,139,156,175,185,206,179,227,264,179,179,253,310,227,227,195,235,209,220,193,235,223,209,211,223,236,224,181,251,207,200,227,265,188,199,258,239,188,253,28,28,17,5,39,39,8,38,28,42,26,799,817,789,13,14,21,40,7,43,37,45,25,21,41,43,22,47,36,18,47,13,18,37,253,194,288,282,250,248,201,250,182,801,767,83,90,77,157,125,66,157,150,170,126,159,166,113,73,143,141,
162,129,58,245,181,239,227,219,219,232,239,299,282,222,238,209,210,188,244,235,207,199,211,206,188,259,180,250,223,219,6,33,38,47,16,10,48,11,45,10,2,48,24,17,35,26,8,38,49,33,5,4,32,23,38,9,43,27,9,29,32,34,46,5,10,19,4,9,29,26,9,32,42,20,41,253,283,186,200,231,218,195,812,781,198,108,86,156,157,60,138,111,64,104,85,107,62,54,168,99,
51,155,119,259,231,222,188,261,214,184,223,291,288,209,231,212,259,212,220,789,818,192,225,249,231,193,213,263,257,17,37,13,48,42,18,13,22,16,35,37,7,42,12,755,583,657,663,3,14,48,2,22,1,46,43,27,42,7,35,22,48,1,26,11,21,10,43,20,34,46,11,28,37,1,41,28,287,306,244,233,248,207,221,231,220,83,67,131,168,149,68,103,72,82,170,51,101,169,135,150,
122,121,126,221,221,265,182,253,210,195,220,244,301,183,182,196,223,240,181,780,793,797,236,181,207,231,224,238,9,14,48,14,10,22,20,32,45,1169,48,38,20,34,36,531,830,710,530,562,22,13,29,48,1141,2,30,47,9,14,8,37,6,44,44,38,17,3,24,32,6,28,34,38,29,17,13,12,19,294,237,186,192,205,251,222,201,232,250,139,137,141,77,164,70,144,78,106,107,119,65,142,
165,152,156,232,265,197,201,265,225,257,198,179,292,188,245,220,218,235,260,792,796,792,828,244,264,253,252,24,7,18,9,49,32,40,21,47,46,4,38,46,27,16,19,684,664,506,658,539,9,23,5,47,18,19,45,8,32,11,2,37,41,29,13,38,46,49,47,34,46,34,34,26,39,49,14,2,38,275,11,182,263,196,186,187,199,260,220,91,152,92,72,143,89,150,85,162,78,69,130,55,
150,120,143,247,236,262,193,248,227,224,214,259,180,281,259,266,253,200,250,219,812,782,219,208,235,253,34,49,33,15,30,42,45,7,35,7,1,38,2,26,15,47,740,708,705,539,826,655,588,30,10,26,20,12,49,9,42,2,14,21,18,16,6,48,3,28,2,32,31,16,33,48,23,5,32,13,14,303,27,47,11,197,218,196,213,237,257,140,155,78,79,74,113,61,54,109,82,111,171,127,
144,122,182,251,208,218,214,220,240,186,253,199,198,301,221,219,194,250,233,252,253,201,262,246,208,43,36,37,655,713,760,41,47,47,2,40,44,22,45,36,28,48,762,689,512,690,689,758,49,29,48,47,11,36,18,33,32,15,18,1,27,6,4,37,37,32,48,48,33,1160,40,48,4,32,9,25,41,298,33,47,33,34,257,264,233,223,196,71,56,167,155,123,154,81,106,131,124,157,96,115,
88,173,231,253,244,265,238,234,188,248,265,209,201,270,221,186,199,194,196,205,201,245,265,233,7,35,12,39,638,588,795,683,41,44,1133,17,9,21,48,32,47,38,759,777,786,506,689,512,2,15,17,33,20,48,7,300,302,267,303,280,312,275,288,308,304,3,33,45,22,34,33,5,26,3,48,36,25,314,25,44,10,1,13,22,41,40,200,194,205,124,122,118,153,107,114,91,142,70,151,62,
119,128,188,212,201,183,251,219,194,239,227,224,181,208,302,250,253,231,195,266,186,193,222,41,46,23,31,35,582,793,510,585,32,44,33,18,20,16,35,47,24,21,736,707,665,511,737,8,39,45,11,27,18,48,275,290,38,47,15,28,3,32,41,41,288,273,20,20,6,46,21,9,18,27,37,46,19,298,10,11,32,26,5,10,46,49,15,45,258,53,58,130,125,54,78,144,126,136,175,145,
68,125,225,214,244,195,194,261,247,259,245,236,253,233,278,180,197,223,259,260,236,181,39,31,2,33,32,12,9,509,755,798,690,38,2,33,49,33,10,38,38,10,28,46,41,2,2,7,46,3,1,32,20,308,270,4,29,38,1,5,26,36,25,36,25,293,10,19,26,30,12,7,16,14,36,31,14,287,288,44,15,33,13,39,6,12,7,28,245,82,121,174,80,135,89,123,161,151,72,116,
119,96,220,264,198,214,261,182,257,235,261,196,183,248,311,188,192,207,225,250,235,21,34,21,43,27,13,32,14,584,655,755,585,43,16,42,5,1139,43,23,6,28,14,42,48,6,20,32,47,1,49,12,39,288,15,25,20,28,17,11,37,6,3,2,14,284,12,8,15,41,41,43,21,45,24,19,47,3,299,36,13,26,15,29,42,47,41,30,259,145,152,67,89,102,58,164,160,165,169,97,
52,136,213,194,239,232,214,236,237,251,220,253,187,234,181,268,257,196,198,214,186,31,10,44,15,38,39,49,21,24,3,26,20,43,9,8,2,6,21,11,9,16,28,46,24,40,35,46,21,19,11,47,301,272,12,17,43,26,1139,45,44,41,17,49,44,314,34,30,38,29,1,21,29,5,15,19,12,47,268,25,23,7,16,45,4,17,4,41,252,123,75,58,158,119,112,171,155,158,101,56,
71,161,236,247,214,200,789,773,817,194,205,240,224,213,214,276,236,201,225,219,45,22,5,16,22,7,14,18,2,6,45,43,24,34,25,38,47,7,46,38,20,29,24,17,43,13,7,23,37,37,20,33,271,38,43,42,39,17,31,45,48,23,17,44,39,293,25,46,36,4,13,22,9,35,44,46,14,17,290,297,6,48,13,1146,13,26,12,19,238,71,88,164,50,58,55,158,111,111,54,133,
75,61,85,252,179,208,789,808,784,236,205,240,200,199,218,303,258,250,234,239,20,13,25,42,25,38,23,44,34,42,35,20,39,8,17,16,1,15,2,28,17,19,9,45,49,42,45,40,19,42,7,12,280,44,47,30,4,41,42,49,49,19,4,17,4,313,9,23,31,22,40,45,1159,47,45,47,10,14,12,285,292,34,47,16,28,24,36,16,253,91,118,98,166,149,81,140,57,64,86,73,
119,54,96,253,239,261,830,783,804,803,199,261,200,180,199,297,238,222,260,7,3,32,19,37,29,22,32,36,41,46,3,43,1,6,38,3,25,20,6,47,33,49,48,31,6,17,13,30,19,32,48,23,297,17,41,4,4,43,43,5,38,20,44,8,3,296,23,4,21,30,23,31,27,7,6,17,10,48,44,18,305,45,49,30,22,31,25,5,183,62,105,132,88,97,130,174,150,78,83,129,
112,161,78,170,200,206,249,786,767,795,266,194,238,258,220,292,251,264,207,41,36,23,27,29,1192,23,36,48,36,1181,14,3,26,291,315,270,308,5,17,16,21,21,47,1196,49,43,48,18,23,9,15,23,278,27,49,37,16,45,25,3,28,4,3,15,308,298,22,48,22,42,17,14,15,21,16,43,12,26,8,40,33,272,39,7,15,4,5,25,240,71,68,141,104,77,105,106,58,130,75,138,
67,123,145,96,236,234,196,208,262,266,186,226,197,252,309,253,183,260,179,25,43,33,7,16,6,5,34,7,30,3,13,6,287,297,283,280,285,295,287,4,17,31,27,23,4,7,11,47,17,49,46,2,277,3,45,39,15,7,13,10,6,4,25,9,301,36,13,14,39,6,19,30,38,32,44,13,37,1152,44,33,14,315,297,8,10,5,35,798,809,137,144,71,149,120,173,71,142,171,145,162,
74,148,139,123,262,220,265,209,218,192,238,245,210,266,276,231,212,246,210,11,15,49,37,34,24,40,48,26,28,2,17,42,308,283,284,761,607,16,268,294,310,26,24,18,36,16,35,19,43,9,31,11,296,26,18,21,44,1183,12,7,18,40,23,21,303,48,47,38,25,44,42,9,24,30,39,5,44,37,49,30,14,29,283,16,40,23,17,778,807,809,87,118,88,175,70,132,56,99,80,159,
160,79,73,104,53,197,236,185,253,265,210,227,223,283,209,232,208,196,193,42,13,11,3,25,36,1,30,44,40,35,761,682,279,291,688,637,714,557,588,5,306,283,16,42,3,3,3,21,40,34,4,30,296,6,2,33,17,45,1,12,19,21,11,19,315,48,17,42,28,26,12,46,41,33,28,47,17,13,43,43,20,32,293,49,25,1,44,779,824,771,71,152,79,71,146,122,91,86,173,99,
151,106,79,146,74,205,198,220,225,201,234,187,311,278,264,240,259,208,2,1,14,47,20,14,17,31,48,35,558,581,770,711,267,293,655,515,715,658,685,639,10,302,279,283,1,8,34,19,8,42,24,311,284,32,31,43,26,8,28,29,18,14,49,274,306,18,32,13,20,1186,12,12,43,26,20,44,29,44,2,11,28,12,275,304,3,7,10,41,49,116,169,65,169,124,95,134,121,141,58,104,
85,152,134,105,65,260,184,208,252,232,219,257,273,212,213,226,209,47,8,41,19,25,4,40,31,44,29,29,655,734,712,711,298,299,605,657,785,581,513,738,10,43,32,295,277,311,301,42,2,32,303,277,25,18,26,35,39,5,33,15,42,41,18,293,270,31,1,34,41,23,47,42,9,26,4,4,4,46,37,30,17,3,42,284,40,5,44,21,22,92,61,127,55,124,125,84,141,89,97,168,
61,110,169,66,110,218,193,187,179,260,263,313,235,196,195,257,221,46,9,30,35,21,36,21,15,47,40,38,688,639,655,635,308,285,561,581,712,733,684,739,709,32,7,6,20,6,302,304,313,275,292,16,2,5,10,17,7,14,23,44,32,26,32,41,305,6,17,47,47,38,3,38,26,48,36,13,44,43,34,40,14,20,5,297,281,3,49,28,38,89,131,151,66,121,58,129,88,126,95,59,
52,174,50,122,139,158,219,192,240,210,298,223,263,181,265,253,29,6,34,45,30,47,3,32,35,23,3,585,505,634,682,586,311,294,738,639,586,740,580,632,585,686,43,15,11,21,20,7,12,48,1,35,31,6,22,30,12,1165,44,41,42,12,12,46,311,303,45,27,8,7,28,28,22,20,38,20,45,32,49,44,4,39,29,276,275,1,1139,18,7,111,80,146,101,143,126,106,99,55,94,100,
171,57,75,160,59,71,213,239,234,280,270,247,197,259,219,194,11,15,32,1,26,4,34,8,43,38,639,687,706,735,533,589,286,312,609,511,557,663,634,587,662,612,12,14,33,19,25,27,1,39,22,21,10,33,47,45,5,20,23,34,11,24,21,12,30,293,37,1,28,46,26,4,21,1,19,10,23,4,9,49,46,34,9,304,17,43,29,38,40,84,129,148,121,125,131,57,96,160,54,50,
139,53,154,125,86,126,179,198,185,307,210,239,233,226,226,225,11,23,44,40,9,20,47,1,31,44,581,633,797,608,590,294,279,280,659,584,820,558,506,688,634,635,27,33,36,42,11,13,24,28,36,14,18,25,49,4,24,28,2,7,30,2,11,44,26,296,286,44,16,5,18,12,17,44,1170,27,17,27,27,22,18,41,7,291,300,48,17,36,10,174,119,52,145,156,100,162,138,70,143,84,
118,124,112,174,158,118,248,213,240,271,266,200,193,179,246,262,15,23,31,40,19,41,14,35,36,511,590,583,588,605,533,315,282,303,659,713,557,634,656,539,687,639,1,41,27,49,23,9,10,29,14,36,38,23,12,6,45,16,36,31,3,33,9,34,5,29,309,313,13,6,24,15,24,19,47,42,14,23,42,1177,3,16,29,41,274,47,17,19,24,70,173,56,117,165,95,163,56,158,147,91,
147,137,84,172,54,63,131,238,197,291,182,214,213,225,239,209,2,6,30,16,19,4,38,581,730,660,514,532,564,637,267,289,301,714,555,660,535,589,561,760,733,688,45,36,5,42,18,15,34,662,714,610,727,711,507,624,675,752,756,607,42,35,27,22,43,32,21,275,271,36,44,43,44,34,41,42,7,42,47,28,14,22,27,16,298,274,19,45,14,150,152,112,85,79,138,89,136,164,149,158,
114,111,172,125,74,112,148,206,208,301,237,198,219,200,193,219,1160,27,33,33,42,45,36,507,765,730,511,760,630,274,299,305,730,634,735,640,508,659,687,534,534,655,47,32,48,21,609,635,605,627,504,729,652,500,701,531,539,589,681,532,540,758,48,35,39,6,35,43,20,271,9,41,1,28,36,23,40,40,46,35,36,18,45,19,285,299,24,46,21,21,170,125,127,157,73,152,163,132,141,158,
171,141,131,161,174,113,133,210,222,305,181,206,257,194,258,214,20,44,47,26,344,758,505,511,515,398,556,565,313,279,314,801,758,683,794,636,584,562,740,532,556,12,43,12,48,590,511,557,561,730,609,795,556,588,738,560,633,599,506,665,704,769,652,40,3,3,1,32,9,10,311,290,295,10,39,2,30,11,26,3,9,45,15,10,292,14,43,33,14,45,73,163,150,81,123,70,138,63,83,70,
115,63,172,153,167,96,168,246,244,182,214,181,235,183,225,220,45,23,25,42,605,583,737,607,540,612,558,508,301,313,305,707,761,563,638,631,761,581,511,829,659,34,47,508,553,737,540,935,929,943,759,690,688,949,937,908,948,634,699,733,735,580,752,49,8,44,34,21,35,43,19,31,267,274,42,12,22,10,48,9,20,22,45,269,314,40,26,40,32,34,146,113,69,136,106,116,54,158,92,79,
174,147,166,155,141,171,96,211,259,225,234,238,265,240,262,226,6,17,49,41,638,538,686,540,765,821,284,312,292,277,583,664,565,514,613,765,633,755,734,681,19,42,549,549,674,551,599,959,938,917,940,920,925,915,954,943,930,927,561,690,679,706,589,515,26,46,3,13,13,13,1,31,14,25,293,303,15,33,1,6,43,19,25,277,13,27,17,1174,43,24,33,53,51,168,173,124,135,54,60,123,
98,81,154,175,87,175,54,192,193,211,218,231,244,209,238,9,29,45,30,681,540,381,511,587,277,268,303,269,532,734,665,664,765,533,615,736,765,556,712,762,16,639,603,588,633,898,907,920,903,924,921,940,927,961,897,956,938,900,942,906,699,609,654,626,4,19,32,13,6,12,18,6,21,20,29,16,310,279,39,12,13,12,271,302,28,13,47,26,4,2,25,48,112,102,110,175,171,167,134,56,
54,81,167,119,114,133,153,57,206,223,263,224,218,205,209,41,15,707,640,630,511,546,540,287,288,279,305,714,760,613,663,657,639,682,588,559,499,505,757,538,15,626,679,554,893,932,928,894,911,958,911,909,934,929,899,901,905,924,941,916,928,740,751,610,503,20,3,23,22,14,27,15,8,5,12,40,4,38,282,281,283,309,277,24,43,44,45,28,3,20,8,625,547,114,125,119,168,113,60,117,
115,112,159,170,156,152,58,128,233,245,211,227,192,185,48,13,565,611,765,661,781,630,312,310,312,289,662,755,736,731,664,585,510,687,821,758,675,511,730,732,575,754,735,922,931,946,952,939,906,957,949,924,950,942,938,932,901,928,951,893,926,941,514,689,588,39,29,31,33,45,9,47,30,33,15,14,12,11,5,7,15,28,46,34,24,47,32,8,36,46,527,576,628,19,97,118,140,123,150,54,
133,63,142,130,172,70,114,117,100,258,260,205,4,44,9,22,605,631,737,665,665,311,294,309,311,535,710,690,606,736,584,707,614,559,690,651,750,739,661,589,707,944,928,951,925,928,901,955,899,936,907,955,899,877,836,844,956,960,961,893,903,899,919,503,729,21,21,31,4,2,15,46,1162,3,45,2,5,43,36,27,18,40,35,7,45,4,48,43,24,653,724,652,620,554,87,90,59,161,141,126,
155,77,155,71,156,61,174,100,129,224,209,206,6,24,48,539,682,557,664,634,268,311,269,275,540,713,580,680,632,639,709,562,903,512,615,680,688,603,749,539,554,906,911,899,926,901,276,301,296,307,268,299,276,861,845,876,940,905,958,914,912,943,900,762,606,11,2,8,12,1144,16,33,34,37,2,6,45,5,4,15,21,1139,35,15,22,28,37,627,726,681,562,731,603,620,571,161,145,80,144,82,
167,110,124,99,89,114,126,152,114,258,251,266,12,589,706,764,681,665,533,274,274,299,315,756,615,540,561,562,776,581,660,558,739,690,540,681,755,732,540,943,899,900,957,946,315,304,961,930,944,934,957,861,315,276,888,852,844,939,960,939,918,921,934,706,650,38,9,8,39,42,3,33,21,30,28,40,1,31,45,12,2,44,30,16,32,528,639,590,664,803,551,632,582,579,672,134,99,54,84,125,
124,102,85,92,154,129,103,132,175,187,186,184,24,506,690,686,739,530,292,308,288,313,506,759,759,814,739,607,665,607,757,731,560,736,760,513,903,951,902,947,928,950,296,291,949,961,941,924,952,915,845,875,890,268,287,314,875,879,899,896,902,921,902,535,624,531,41,43,10,41,22,49,46,2,13,29,15,29,7,28,41,17,28,649,679,609,725,681,563,781,829,779,813,820,811,70,123,126,92,117,
117,122,155,53,87,146,132,132,83,221,257,223,682,606,638,512,512,557,314,283,311,515,762,515,708,614,688,708,559,731,735,712,614,711,687,905,947,927,957,942,897,283,305,957,912,896,945,959,932,904,854,866,882,870,876,307,289,888,910,943,903,912,959,708,557,749,29,30,5,21,45,27,39,22,27,7,26,3,1,4,755,711,760,515,615,687,822,756,828,835,776,814,810,813,784,50,75,139,174,53,
105,170,135,62,64,174,60,152,105,86,208,207,690,686,706,505,608,557,308,268,303,709,585,713,756,665,561,680,756,533,730,715,505,633,509,899,913,934,927,898,298,292,945,961,908,919,910,910,909,924,936,869,877,854,844,843,278,286,920,898,904,895,914,653,633,603,11,29,9,12,604,759,690,701,534,757,711,725,552,677,738,732,728,535,740,676,637,506,817,824,770,828,803,811,806,107,135,97,72,100,
138,110,166,72,105,117,58,56,74,152,186,832,809,609,770,533,532,613,279,269,310,687,585,715,515,639,655,539,588,770,588,756,684,605,933,956,920,899,909,289,267,918,944,921,915,922,956,941,924,935,957,857,850,876,885,847,890,279,289,895,935,933,945,565,505,553,580,562,556,585,611,709,635,555,835,736,688,658,754,508,708,531,615,589,750,658,711,600,777,834,814,826,772,804,1004,1028,986,96,82,83,
100,72,127,125,126,115,158,146,90,167,793,814,815,776,633,637,640,585,276,295,760,537,781,658,560,513,534,733,563,513,534,611,535,611,931,906,909,934,291,286,944,940,904,903,942,914,952,912,892,900,954,927,878,838,856,880,859,890,302,925,952,943,897,739,550,831,601,689,586,680,701,827,608,736,501,601,580,739,734,826,512,561,502,628,758,732,808,793,769,826,804,777,805,990,1009,984,1000,1044,970,1020,
87,161,167,147,123,71,114,87,170,97,818,793,824,771,738,606,581,740,309,288,561,760,558,680,583,761,540,730,638,563,632,765,606,936,895,934,935,933,292,893,931,893,914,912,896,909,919,960,903,926,906,922,904,937,961,907,912,936,314,314,924,952,640,700,550,503,649,556,582,511,712,526,586,588,533,587,531,583,650,588,679,613,679,683,1034,1012,1029,1044,980,1014,1011,998,1044,1009,1045,974,964,1034,975,978,
55,138,77,100,166,168,54,85,147,159,262,28,778,835,530,610,586,509,270,294,714,585,709,705,662,910,559,536,706,636,630,730,947,945,928,943,912,902,279,944,949,946,935,937,908,897,912,933,936,900,895,940,902,951,925,955,946,901,905,301,938,959,510,677,575,609,700,659,586,754,512,700,537,581,605,706,526,509,677,540,500,624,535,996,1007,988,1043,1003,1043,992,1031,1004,1045,1033,1007,1036,1042,1045,989,1006,
108,136,169,96,130,66,73,144,90,82,218,44,15,18,713,540,711,687,292,311,300,561,710,540,710,639,581,581,662,584,773,684,935,925,904,920,932,914,315,956,947,902,944,942,925,903,932,912,934,946,959,939,959,954,898,898,912,897,959,287,923,928,892,974,966,1039,987,983,1022,1026,1014,1021,1045,997,1026,1038,1024,966,1026,1005,983,1012,964,986,988,978,1044,1017,1038,1008,984,996,975,1026,1017,1035,967,1045,1020,989,
91,134,124,58,112,56,115,169,116,104,223,32,35,26,759,590,614,684,290,274,301,636,705,586,507,536,635,708,756,515,655,555,639,911,895,956,913,920,311,896,947,949,933,956,940,940,948,900,904,936,911,961,925,957,913,899,907,907,940,290,940,896,927,1015,991,1035,965,973,992,999,963,995,981,1041,1016,966,1021,1028,1035,1003,1001,1023,1038,1023,971,971,1017,984,1033,1019,998,967,1021,985,971,989,1002,980,975,1034,
156,175,107,71,112,80,128,168,87,157,175,201,259,13,533,737,659,564,275,315,299,587,681,759,557,762,586,634,735,715,759,610,764,892,922,910,955,892,291,295,939,906,952,921,904,939,940,932,957,951,923,938,960,930,953,950,945,947,922,283,921,897,906,1004,1003,1005,1035,1009,1027,1031,972,1022,979,969,1036,969,989,967,1010,1035,987,971,1014,998,995,994,1036,1034,1077,1055,1120,1053,1002,985,1009,1004,1024,971,1024,970,
150,93,123,127,121,77,175,76,124,142,156,209,221,38,757,787,689,610,635,287,310,279,660,706,680,661,589,612,739,730,614,558,505,934,951,903,897,924,943,911,306,278,953,936,919,902,924,907,911,922,913,958,956,892,938,959,919,919,897,315,846,852,896,973,1019,1031,1032,999,1006,972,1037,1058,1125,1124,1124,1026,1029,977,968,972,1060,1076,1046,1109,1055,1083,1104,1062,1068,1075,1092,1075,1126,1012,977,994,996,1036,1010,991,
88,65,174,124,151,65,62,65,151,171,84,246,239,28,713,655,636,712,580,539,279,299,661,635,657,540,687,688,915,536,709,710,534,762,954,904,944,935,919,922,953,892,312,274,910,911,940,927,905,957,938,945,921,927,956,934,935,838,877,276,890,836,902,963,1028,1009,1036,964,1045,1060,1107,1065,1070,1071,1080,1079,1048,1066,1102,1085,1110,1091,1104,1059,1127,1087,1099,1079,1118,1068,1106,1049,1054,1017,1032,1035,1040,1033,1042,968,
100,143,164,132,87,109,87,152,152,80,73,260,253,200,46,682,740,507,656,707,294,296,298,295,536,664,658,565,765,558,658,735,565,509,638,935,934,931,897,892,905,912,920,291,293,948,909,894,931,925,957,905,903,930,953,917,876,856,891,294,840,866,932,971,1045,1014,1024,1018,1044,1049,1080,1081,278,293,312,293,290,282,272,284,1088,1072,1071,1113,1092,1070,1058,1062,1022,1109,1051,1115,1114,1071,1044,1002,983,1037,974,1013,
119,132,147,104,74,117,90,167,98,92,169,113,175,266,245,37,688,635,534,558,276,290,304,301,588,680,563,708,510,713,707,580,683,690,587,942,920,955,915,950,897,915,922,952,296,275,286,936,917,910,907,920,896,927,902,931,882,842,856,288,871,848,844,1023,1002,967,997,1028,1063,1069,1093,308,300,1085,971,1120,1057,1049,1046,294,276,1063,1080,1081,1106,1083,1048,967,1015,994,1118,1119,1050,1105,1082,984,1025,1022,973,1029,
130,137,118,150,65,61,126,144,151,102,101,142,85,132,240,8,682,615,606,705,510,300,278,275,635,736,730,514,589,511,605,738,638,761,735,758,908,940,894,922,901,922,950,960,937,896,292,275,912,950,934,892,915,914,920,908,886,863,864,303,858,871,869,985,967,1011,996,993,1110,1084,1089,293,1087,1112,1045,1030,985,1026,1093,1080,278,305,1084,1107,1103,1088,1111,966,1012,963,1074,1108,1056,1071,1051,1020,975,1018,977,983,
145,85,121,121,109,87,101,150,61,84,59,52,167,142,218,39,605,764,733,734,659,507,291,295,764,740,506,712,634,923,532,706,682,586,515,512,954,953,910,900,946,945,940,894,922,919,900,278,912,897,893,952,920,914,931,959,885,844,872,849,281,837,877,1015,1039,1026,1041,972,965,1078,1065,277,1075,1129,985,1040,991,991,1013,1092,1081,309,1097,1089,1074,1058,1053,1015,966,1035,988,1095,1053,1048,1090,1107,1004,1038,1044,1024,
119,115,59,65,64,165,173,111,114,60,78,139,140,68,264,31,42,710,736,687,590,707,585,306,304,315,732,564,760,588,614,640,560,605,590,663,897,950,939,913,905,956,914,895,947,924,941,921,295,893,924,905,916,937,943,917,861,875,850,885,271,843,886,992,1039,1000,1031,1037,1023,1116,1075,302,1127,1127,1112,968,983,1036,985,1100,1097,1053,306,1120,1126,1066,1098,1018,1032,1044,982,969,1071,1079,1066,1076,1029,965,1044,1018,
150,141,137,150,162,90,134,107,138,70,109,85,113,165,179,207,16,736,634,630,765,539,556,293,314,313,288,538,615,688,896,947,660,763,605,683,761,938,921,947,949,911,922,910,957,956,950,911,309,300,906,902,914,946,908,901,957,871,850,836,842,302,861,1044,991,968,971,967,1024,1054,1114,1090,300,1083,1046,972,989,1105,1129,1109,1129,1129,300,1078,1101,1087,1129,984,1019,995,1041,965,1099,1057,1049,1097,1028,1030,1017,1031,
50,64,105,72,96,64,51,83,55,163,162,141,102,82,141,224,49,1150,580,559,510,589,583,759,736,306,270,588,680,665,919,906,929,561,756,708,508,953,920,949,911,902,928,896,914,925,953,923,911,301,905,916,941,915,919,899,959,876,843,858,914,314,281,1025,1000,1002,977,1024,973,1028,1103,1119,272,278,1099,1124,1059,1090,1127,1104,1080,1050,309,285,1049,1088,1046,1125,1105,1084,1108,1057,1124,1053,1053,1118,974,1014,981,971,
63,118,83,153,159,173,164,106,172,97,144,155,161,163,135,213,32,28,18,586,613,556,538,756,707,585,315,285,295,635,530,563,539,706,565,536,737,942,921,902,903,944,916,904,935,909,930,900,300,301,930,909,957,903,959,911,932,959,911,896,931,892,308,903,964,1045,1023,1017,980,1041,1065,1047,1088,279,1049,1055,1122,1060,1091,1093,1056,1126,1047,296,295,1046,1063,1083,1096,1059,1126,1051,1074,1093,1082,1067,965,976,974,1040,
57,174,64,96,119,159,91,131,59,93,144,149,175,171,110,235,24,26,18,24,613,507,505,609,555,580,283,290,281,639,589,763,540,531,589,763,757,892,936,930,932,921,941,912,907,931,898,919,280,922,933,957,961,941,913,956,950,907,913,916,948,898,286,960,956,1039,966,1012,1043,1021,1099,1090,1113,275,306,1069,1090,1059,1119,1098,1089,1120,1063,1082,306,305,275,288,292,1051,1063,1062,1126,1065,1057,1070,974,978,1035,969,
107,175,97,137,55,127,159,168,104,143,160,106,151,154,145,167,209,48,45,17,24,539,564,736,638,561,684,277,285,270,267,293,556,538,680,633,556,535,938,920,923,922,908,950,915,936,926,282,293,961,933,904,931,924,896,955,930,958,913,952,960,924,281,313,892,939,974,1040,1039,990,1079,1089,1108,1084,314,1099,1129,1058,1125,1119,1072,1107,1102,1083,1056,1121,1111,1116,1110,293,1055,1099,1093,1120,1087,1129,1034,1008,1012,1012,
102,157,165,119,151,126,157,54,151,168,91,76,142,165,52,100,261,246,26,16,3,34,657,685,586,731,534,514,270,274,286,292,306,268,686,764,682,736,936,936,952,901,933,897,916,942,282,309,951,946,910,920,876,885,845,849,957,942,959,903,944,957,943,902,304,274,292,1010,964,1004,1125,1115,1099,1102,1063,275,1066,1087,1073,1109,1104,1108,1109,1065,1106,1057,1103,1078,1050,301,309,1119,1094,1076,1116,1100,1041,991,999,1026,
65,169,124,63,169,87,142,104,128,148,111,61,155,85,59,120,115,210,31,35,38,12,632,682,512,585,614,912,707,738,533,303,290,306,310,315,291,505,924,949,945,910,927,930,910,311,303,947,928,961,917,861,860,846,122,93,883,880,884,919,895,917,920,933,956,267,305,299,1033,985,1076,1104,1072,1114,1082,270,1093,1057,1110,1052,1127,1021,1108,1086,1066,1077,1098,1110,1071,1107,308,1072,1105,1068,1062,1109,1020,977,1013,1010,
144,135,159,63,134,101,169,99,150,107,102,102,144,148,112,71,121,232,183,192,29,41,555,690,730,560,930,931,896,531,590,759,655,309,294,315,288,315,955,935,955,945,928,907,302,299,902,924,898,951,865,841,873,133,149,167,115,69,852,864,939,955,920,956,932,898,902,271,984,990,1092,1082,1064,1087,1072,270,279,1077,989,983,1045,1028,1065,1071,1050,1053,1065,1064,280,276,276,1064,1091,1091,1047,1103,1025,993,1041,968,
61,58,139,72,68,173,99,132,165,116,155,169,56,133,54,74,80,174,167,208,43,24,756,610,531,680,936,902,940,899,615,737,714,605,313,294,306,288,927,918,961,909,267,276,290,940,952,961,874,867,844,83,129,130,74,75,144,126,113,855,851,937,936,905,929,899,904,296,295,990,1057,1093,1105,1084,1113,1089,271,1127,981,975,994,975,1121,1070,1056,1081,1058,278,293,1106,1106,1122,1073,1053,1096,1082,971,1024,1017,967,
175,102,98,57,80,166,130,106,62,70,134,67,57,118,120,76,130,115,147,248,184,187,735,612,705,587,506,925,944,639,765,657,532,557,756,536,278,270,302,294,278,267,300,932,956,941,899,950,865,61,97,169,78,144,138,70,133,71,136,80,153,848,918,924,907,935,946,913,292,289,1116,1046,1114,1083,1054,1116,281,1064,1011,996,975,982,1031,1053,1107,277,297,1129,1086,1058,1104,1053,1066,1052,1129,1123,973,963,1017,968,
74,156,147,142,96,121,169,98,160,119,108,108,80,156,161,134,150,97,120,84,197,258,235,680,665,635,683,763,661,537,583,656,609,630,828,634,905,936,923,907,917,894,910,957,901,901,950,869,121,96,174,174,56,78,138,160,153,142,87,56,145,877,854,840,852,900,925,949,892,286,290,310,1087,1065,1117,1083,279,1048,1010,1033,985,1034,1034,1109,280,270,1083,1074,1047,1057,1091,1057,1072,1095,1111,1116,973,988,1018,962,
59,170,173,169,175,162,52,76,70,52,113,150,125,134,150,130,92,150,64,129,196,250,263,245,37,22,10,7,34,29,3,15,30,822,807,788,917,919,951,928,933,892,897,917,953,895,865,880,131,91,141,112,90,120,173,117,104,55,71,78,165,70,117,137,849,857,845,945,887,862,1117,300,1062,1107,1110,290,301,1081,1098,1020,1008,1043,1025,271,274,1048,1084,1086,1056,1096,1085,1107,1054,1079,1075,1073,1009,963,998,1003,
121,131,65,94,152,145,116,169,78,170,71,138,169,151,64,80,114,62,65,170,129,195,227,259,219,262,45,22,38,24,197,220,187,803,787,772,960,900,912,915,948,955,944,899,939,885,872,93,79,71,104,131,163,84,84,83,95,66,121,101,67,131,163,80,83,158,882,890,867,867,1049,1110,292,299,288,273,1080,1121,1117,1085,1102,1013,1005,299,1120,1091,1126,1122,1119,1067,1104,1097,1109,1109,1103,995,1025,1003,1015,1038,
90,139,158,175,158,169,127,87,99,81,99,77,91,110,156,102,65,142,77,98,62,104,186,234,187,222,194,179,247,253,207,219,232,780,767,892,960,934,923,922,911,892,956,886,882,890,108,65,84,118,108,129,79,102,58,154,50,131,172,153,97,112,61,117,61,104,104,72,114,106,1102,1087,1079,1077,1129,1119,1125,1066,1100,1110,1094,1083,1116,274,1119,1066,1101,1062,1081,1056,1129,1060,1074,1092,980,1013,973,1042,982,989,
106,102,73,142,136,140,93,57,175,68,150,52,121,123,166,71,84,84,96,67,127,86,150,141,118,188,253,262,265,240,213,236,257,805,794,865,859,884,891,891,885,879,884,845,134,66,102,102,149,92,147,121,74,166,74,84,96,145,164,162,108,127,56,70,75,68,151,73,103,158,993,1126,1096,1098,1050,1059,1074,1078,1103,1069,1053,1091,1065,291,281,1118,1114,1085,1122,1129,1126,1104,1092,1010,1020,968,1002,987,1035,1017,
128,65,152,117,169,146,71,141,147,53,115,126,56,170,133,74,51,60,74,130,94,54,77,148,92,55,161,130,170,135,59,147,115,86,77,115,113,174,174,112,94,91,107,128,147,92,86,74,74,172,140,78,73,75,110,149,50,92,96,95,80,71,71,84,56,136,165,66,174,66,977,991,1103,1089,1098,1103,1056,1082,1070,1098,1089,1127,1070,1047,313,1082,1123,1091,1063,1123,1070,1053,994,990,1086,1047,1037,1000,968,1013,
73,80,99,152,129,52,130,99,133,111,87,80,116,166,116,108,133,78,141,87,104,161,90,174,109,103,144,96,114,120,95,63,68,144,82,71,80,91,107,95,81,65,83,104,98,93,138,160,97,97,160,144,115,127,130,92,132,175,68,147,66,69,126,50,75,120,160,75,156,1040,1029,984,984,1008,987,1013,1086,1098,1093,1055,1101,1063,1062,1105,299,277,275,1095,1067,1014,1004,978,996,1088,1106,1092,1112,1090,965,1031,
69,66,149,95,115,74,119,145,105,126,113,68,56,83,77,156,74,108,54,64,167,116,69,53,153,79,128,131,110,86,63,108,100,136,129,77,91,161,152,58,104,142,147,58,118,173,59,58,74,113,173,103,94,82,67,142,73,66,159,127,131,69,68,117,111,115,67,143,154,1027,1028,980,1021,987,997,1035,981,1062,1048,1123,1120,1077,1081,1074,1112,1096,312,1072,1081,974,981,975,1106,1104,1092,1115,1086,1086,1126,974,
150,167,122,103,121,120,55,168,158,110,154,65,161,164,86,156,55,169,162,121,133,126,135,160,144,101,153,149,149,123,156,137,107,61,140,152,163,69,79,118,79,82,92,65,172,77,91,93,144,156,162,67,169,117,113,139,57,89,131,99,52,123,73,70,94,175,130,147,89,1018,998,1002,975,992,1041,1012,1017,1011,1038,987,970,995,1098,1066,1125,1072,1127,1061,1126,1118,1122,1039,1125,1110,1052,1107,1124,1062,1090,1011,
145,80,100,77,80,73,148,174,140,100,123,119,169,52,78,74,101,119,101,89,76,154,172,118,157,107,92,58,92,128,158,74,174,144,879,137,104,58,161,87,121,56,156,135,119,50,141,80,67,153,173,119,57,126,55,73,137,116,161,113,175,64,52,171,59,83,165,165,167,1019,1031,976,1024,985,979,969,1010,976,1007,987,973,983,1019,996,986,1030,1027,1005,972,1058,1090,1119,1057,1062,1099,1055,1053,1047,1123,1010,
122,82,77,63,111,145,120,172,57,87,116,143,166,119,112,165,169,101,77,76,65,103,93,103,143,128,127,58,169,166,86,51,165,134,873,75,79,105,151,63,116,94,111,97,142,56,165,140,154,56,153,172,52,166,57,120,108,111,50,78,87,131,83,121,54,121,62,117,116,1011,1019,990,1010,1028,1034,1001,1033,963,974,998,991,1023,1015,1022,1032,965,1036,1045,1038,1045,1024,1061,1102,1046,1094,1087,1115,1067,1106,1014,
79,139,99,52,167,122,122,157,110,103,124,71,74,87,111,138,133,84,55,53,99,131,62,135,97,118,157,159,161,118,116,124,120,123,148,111,113,113,145,175,130,64,126,122,97,166,56,117,135,68,132,85,59,149,58,63,150,118,60,125,58,163,81,69,94,99,173,61,1016,981,997,984,1044,1009,1024,1010,998,1000,1000,1026,998,983,1031,985,1022,1019,984,966,1035,969,995,1035,1082,1114,1097,1100,1126,1065,1004,1007,
146,165,129,82,87,131,120,124,67,86,158,93,109,125,126,159,97,137,152,113,167,67,85,68,65,55,58,114,109,151,87,139,59,110,129,79,103,113,126,159,109,174,124,104,131,170,73,77,89,100,63,102,155,112,106,128,149,89,70,165,173,100,53,56,174,173,78,150,993,963,1040,1027,975,968,1024,1021,1037,1017,1039,1027,1004,1003,1019,994,1044,1035,972,977,991,972,972,1032,984,1027,1099,1109,1084,1071,967,981
</data>
 </layer>
 <objectgroup id="2" name="Levels">
  <object id="1" name="spawnpoint" x="350" y="1768">
   <point/>
  </object>
  <object id="2" name="1" x="278" y="1378">
   <point/>
  </object>
  <object id="3" name="2" x="620" y="1152">
   <point/>
  </object>
  <object id="4" name="3" x="356" y="980">
   <point/>
  </object>
  <object id="5" name="4" x="390" y="578">
   <point/>
  </object>
  <object id="6" name="5" x="694" y="638">
   <point/>
  </object>
  <object id="7" name="6" x="976" y="734">
   <point/>
  </object>
  <object id="8" name="7" x="1226" y="512">
   <point/>
  </object>
  <object id="9" name="8" x="1594" y="572">
   <point/>
  </object>
  <object id="10" name="9" x="1980" y="546">
   <point/>
  </object>
  <object id="11" name="10" x="2304" y="666">
   <point/>
  </object>
  <object id="12" name="11" x="2528" y="864">
   <point/>
  </object>
  <object id="13" name="12" x="2422" y="1098">
   <point/>
  </object>
  <object id="14" name="13" x="2688" y="1220">
   <point/>
  </object>
  <object id="15" name="14" x="2600" y="1418">
   <point/>
  </object>
  <object id="16" name="15" x="2778" y="1756">
   <point/>
  </object>
  <object id="17" name="16" x="2432" y="1842">
   <point/>
  </object>
  <object id="18" name="17" x="2272" y="1548">
   <point/>
  </object>
  <object id="19" name="18" x="1986" y="1352">
   <point/>
  </object>
  <object id="20" name="19" x="2108" y="946">
   <point/>
  </object>
  <object id="21" name="20" x="1772" y="1034">
   <point/>
  </object>
  <object id="23" name="21" x="1628" y="1216">
   <point/>
  </object>
  <object id="24" name="22" x="1616" y="1474">
   <point/>
  </object>
  <object id="25" name="23" x="1324" y="1284">
   <point/>
  </object>
  <object id="26" name="24" x="1002" y="1212">
   <point/>
  </object>
  <object id="27" name="25" x="1078" y="1462">
   <point/>
  </object>
  <object id="28" name="26" x="920" y="1632">
   <point/>
  </object>
  <object id="29" name="27" x="828" y="1806">
   <point/>
  </object>
  <object id="30" name="28" x="582" y="1990">
   <point/>
  </object>
  <object id="31" name="29" x="672" y="2230">
   <point/>
  </object>
  <object id="32" name="30" x="804" y="2454">
   <point/>
  </object>
  <object id="33" name="31" x="972" y="2610">
   <point/>
  </object>
  <object id="34" name="32" x="1204" y="2720">
   <point/>
  </object>
  <object id="35" name="33" x="1496" y="2736">
   <point/>
  </object>
  <object id="36" name="34" x="1566" y="2408">
   <point/>
  </object>
  <object id="37" name="35" x="1284" y="2296">
   <point/>
  </object>
  <object id="38" name="36" x="1286" y="1962">
   <point/>
  </object>
  <object id="39" name="37" x="1640" y="1816">
   <point/>
  </object>
  <object id="40" name="38" x="1882" y="1942">
   <point/>
  </object>
  <object id="41" name="39" x="1850" y="2210">
   <point/>
  </object>
  <object id="42" name="40" x="1952" y="2514">
   <point/>
  </object>
  <object id="43" name="41" x="2174" y="2754">
   <point/>
  </object>
  <object id="44" name="42" x="2428" y="2782">
   <point/>
  </object>
  <object id="45" name="43" x="2356" y="2542">
   <point/>
  </object>
  <object id="46" name="44" x="2440" y="2314">
   <point/>
  </object>
  <object id="47" name="45" x="2694" y="2354">
   <point/>
  </object>
  <object id="48" name="46" x="2718" y="2592">
   <point/>
  </object>
  <object id="49" name="47" x="2928" y="2714">
   <point/>
  </object>
  <object id="50" name="48" x="2702" y="2804">
   <point/>
  </object>
  <object id="51" name="49" x="2732" y="3004">
   <point/>
  </object>
  <object id="52" name="50" x="3074" y="3076">
   <point/>
  </object>
 </objectgroup>
</map>
